X:1
T:Title
%%score 1 { ( 2 5 6 ) | ( 3 4 7 ) }
L:1/8
Q:1/4=112
M:4/4
K:Bb
V:1 treble nm="Grand Piano"
V:2 treble nm="Grand Piano"
V:5 treble 
V:6 treble 
V:3 bass 
V:4 bass 
V:7 bass 
V:1
 z8 | z8 | z8 | z8 | z8 | z8 | z8 | z8 | z8 | z8 | z8 | D6 F2 | G6 F2 | G2 B2 c2 B2 |[M:3/4] F6 | %15
[M:1/4] DC |[M:4/4] D2 F2 G3 B | E6 DC | D2 F2 B3 c | F6 Bc | d8- | d2 e2 c3 B | B8 |] %23
V:2
 D6 F2 | G6 F2 | G2 B2 c2 B2 | F6[K:bass] z2 | z4[K:treble] [B,G]4 | D2 z2 z4[K:bass] | %6
w: Alexander~Brent~Smith *||||||
 z4[K:treble] D2 E2 | [CF]6 [B,FB][Fc] | d2- [^Fd-]2 [Gd-]2 [Ad-]2 | [Gd]2 [Ge]2 c3 B | B8 | %11
w: |||||
 d6[K:bass][K:treble] z2 | [Bg]6[K:bass][K:treble] z2 | g2 b2 c'2 [Bb]2 |[M:3/4] [cf]6 | %15
w: ||||
[M:1/4] F>F |[M:4/4] f8- | f6 z2 | f8- | f6 z2 | z4 z2 a2- | a2 g2 f4 | [df]8 |] %23
w: ||||||||
V:3
 B,6 [A,C]2 | [G,B,D]6 [B,D]2 | B,2 z2 z4 | B,2 z2 z4 | B,,2 A,,2 G,,2 G,G, | C,6 z2 | z4 G,4 | %7
 z2 B,4 z2 | [B,,B,]2 [D,A,]2 [=E,G,]2 [^F,C]2 | [G,B,]2 [C,C]2 [F,E]2 [F,E]2 | [B,DF]8 | %11
 [B,DFB]6 [A,,A,CFc]2 | [G,B,G]6 [D,,F,B,FB]2 | G2 B2 e2- [E,G,B,Ee]2 |[M:3/4][K:bass] [F,CF]6 | %15
[M:1/4] F,>F, |[M:4/4] [B,,DF]2 [D,D]2 [E,D]2 z B, | [F,C]6 F,>F, | [B,,DF]2 [D,D]2 [G,D]2 z B, | %19
 [F,C]6 F,>F, | [B,,DB]2 [D,C]2 [=E,B,]2 [^F,D]2 | [G,F]2 .[CEB]2[K:bass] E2 z F, | [B,DB]8 |] %23
V:4
 x8 | x8 | [E,E]2- [E,G,E-]2 [_A,,_A,E]2 [E,G,E]2 | [F,C]6 F,,F,, | x8 | z2 C4 F,,F,, | z4 z2 C,2 | %7
 F,6 z2 | x8 | x8 | x8 | x8 | x8 | [E,,G,B,Ee]4 [_A,,_A,CEc]2 z2 |[M:3/4][K:bass] x6 |[M:1/4] x2 | %16
[M:4/4] z4 z2 C,2 | x8 | z4 z2 C,2 | x8 | x8 | z4[K:bass] F,4 | x8 |] %23
V:5
 x8 | x8 | x8 | z2[K:bass] A,G, A,2 [F,A,D][E,A,C] | z4[K:treble] z2 D2 | %5
 [G,E]6[K:bass] [F,A,D][E,A,C] | [F,B,D]2[K:treble] [F,CF]2 B3 c | B,2 z2 z4 | F2 z2 z4 | %9
 z4 B2 A2 | x8 | z2[K:bass] B,,4[K:treble] f2 | z2[K:bass] G,,4[K:treble] f2 | x8 | %14
[M:3/4] B2 AG A2 |[M:1/4] x2 |[M:4/4] z4 B4 | x8 | z4 B4 | x8 | f2 [A^f]2 [Gg]2 c2 | %21
 B2 z D B2 z [cf] | x8 |] %23
V:6
 x8 | x8 | x8 | x2[K:bass] x6 | [F,B,D]2[K:treble] [F,CF]2 D2 z B | x6[K:bass] x2 | %6
 x2[K:treble] x6 | x8 | x8 | x8 | x8 | x2[K:bass] x4[K:treble] x2 | x2[K:bass] x4[K:treble] x2 | %13
 x8 |[M:3/4] x6 |[M:1/4] x2 |[M:4/4] z2 F2 z2 Cc | B2 A4 F>F | z2 F2 z2 Cc | B2 A4 F>F | x8 | %21
 z4 z2 [EA]2 | x8 |] %23
V:7
 x8 | x8 | x8 | x8 | x8 | x8 | B,,2 A,,2 G,,2 z G, | z4 z E,D,[C,A,] | x8 | x8 | x8 | x8 | x8 | %13
 x8 |[M:3/4][K:bass] x6 |[M:1/4] x2 |[M:4/4] x8 | x8 | x8 | x8 | x8 | x4[K:bass] x4 | x8 |] %23

